public/flags/pr.svg

<svg xmlns="http://www.w3.org/2000/svg" width="32" height="32" viewBox="0 0 32 32"><path fill="#db2f20" d="M5 4h22c2.208 0 4 1.792 4 4v2H1V8c0-2.208 1.792-4 4-4m22 24H5c-2.208 0-4-1.792-4-4v-2h30v2c0 2.208-1.792 4-4 4"/><path fill="#fff" d="M1 18h30v5H1zm0-9h30v5H1z"/><path fill="#db2f20" d="M1 13.5h30v5H1z"/><path fill="#214de8" d="M2.316 26.947 16 16 2.316 5.053A3.98 3.98 0 0 0 1 8v16c0 1.172.513 2.216 1.316 2.947"/><path d="M27 4H5a4 4 0 0 0-4 4v16a4 4 0 0 0 4 4h22a4 4 0 0 0 4-4V8a4 4 0 0 0-4-4m3 20c0 1.654-1.346 3-3 3H5c-1.654 0-3-1.346-3-3V8c0-1.654 1.346-3 3-3h22c1.654 0 3 1.346 3 3z" opacity=".15"/><path fill="#fff" d="m8.016 16.628 2.302-1.672H7.473l-.879-2.706-.879 2.706H2.87l2.301 1.672-.879 2.705 2.302-1.672 2.301 1.672z"/><path fill="#fff" d="M27 5H5a3 3 0 0 0-3 3v1a3 3 0 0 1 3-3h22a3 3 0 0 1 3 3V8a3 3 0 0 0-3-3" opacity=".2"/></svg>

<svg xmlns="http://www.w3.org/2000/svg" width="32" height="32" viewBox="0 0 32 32">
  <path d="M5,4H27c2.208,0,4,1.792,4,4v2H1v-2c0-2.208,1.792-4,4-4Z" fill="#db2f20"/>
  <path d="M5,22H27c2.208,0,4,1.792,4,4v2H1v-2c0-2.208,1.792-4,4-4Z" transform="rotate(180 16 25)" fill="#db2f20"/>
  <path fill="#fff" d="M1 18H31V23H1z"/>
  <path fill="#fff" d="M1 9H31V14H1z"/>
  <path fill="#db2f20" d="M1 13.5H31V18.5H1z"/>
  <path d="M2.316,26.947l13.684-10.947L2.316,5.053c-.803,.732-1.316,1.776-1.316,2.947V24c0,1.172,.513,2.216,1.316,2.947Z" fill="#214de8"/>
  <path d="M27,4H5c-2.209,0-4,1.791-4,4V24c0,2.209,1.791,4,4,4H27c2.209,0,4-1.791,4-4V8c0-2.209-1.791-4-4-4Zm3,20c0,1.654-1.346,3-3,3H5c-1.654,0-3-1.346-3-3V8c0-1.654,1.346-3,3-3H27c1.654,0,3,1.346,3,3V24Z" opacity=".15"/>
  <path fill="#fff" d="M8.016 16.628L10.318 14.956 7.473 14.956 6.594 12.25 5.715 14.956 2.87 14.956 5.171 16.628 4.292 19.333 6.594 17.661 8.895 19.333 8.016 16.628z"/>
  <path d="M27,5H5c-1.657,0-3,1.343-3,3v1c0-1.657,1.343-3,3-3H27c1.657,0,3,1.343,3,3v-1c0-1.657-1.343-3-3-3Z" fill="#fff" opacity=".2"/>
</svg>
